X: 13
T: Rambling Pitchfork, The
Z: UPipes & harp
S: https://thesession.org/tunes/89#setting49206
R: jig
M: 6/8
L: 1/8
K: Gmaj
|:~F3 AF{E}F|dF{E}F AFD|~G3 ABc|ded cAG|
~F3 AFF|dFF AFD|~G3 BAG|1 AFD ~D2 E:|2 AFD ~D2 A||
|:d2 e fed|faf gfe|d2 e (3gfe d|dcA dcA|
d2 e fed|(3fga f gfe|dcA BAG|1 AFD {A}D2 A:|2 AFD {A}D3|

